X: 12
T:Aires de Pontevedra
M:2/4
L:1/16
Q:100
C:Trad
S:Rep. Ricadro Portela
R:Polca
B:Os Segredos da Gaita. FOXO
K:C
DE |: FEFD ECDE | FEFD ECDE | FEFD ECDE |
FEFD ECEG | _B4 BABd | c_BAG FEFG |F4 FEFG |
c_BAG FEFG | E2C2 ECEG | c_BAG FEFG |D4 EGEC |
EGEC DFDB, | D2C2 C4- |1 C6 DE :|2 C2G2 c2G2|: E2FG AGFE |
D3E FGFE | D2EF GFED | C2G2 c2G2 | E2FG AGFE |
D3E FEFG | AGEC GFDB, |1 C2G2 c2G2 :|2 C6 DE ||

